X: 30
T:Harvest Home
M:4/4
L:1/8
R:Hornpipe
K:D
A>F|"D"D>AF>A D>AF>A|"D"d>ef>e d>cB>A|"A"e>Af>A "A"g>Af>A|"A"(3efe(3dcB
(3ABA (3GFE|!
"D"D>AF>A D>AF>A|"D"d>ef>e d>cB>A|"A"e>Af>A "A"g>ed>c|"D"d2 f2 d2:|!
|:c>d|"A"e>A A/A/A "D"f>A A/A/A|"G"g>A A/A/A "D"f>A A/A/A|
"A"e>Af>A "A"g>Af>A|"A"(3efe(3dcB (3ABA (3GFE|!
"D"D>AF>A D>AF>A|"D"d>ef>e d>cB>A|"A"e>Af>A "A"g>ed>c|"D"d2 f2 d2:|!
